src/assets/images/svg/languages/logo-node.svg

<svg width="33" height="36" viewBox="0 0 33 36" fill="none" xmlns="http://www.w3.org/2000/svg">
<g clip-path="url(#clip0_98_122)">
<path d="M15.0147 0.457051C15.912 -0.0516727 17.0806 -0.0539705 17.9771 0.457051C22.4872 2.98139 26.9987 5.50177 31.508 8.02765C32.3562 8.50088 32.9235 9.43586 32.9148 10.4039V25.5913C32.9212 26.5994 32.2978 27.5568 31.403 28.0193C26.9077 30.5297 22.4148 33.0432 17.9203 35.5536C17.0045 36.0723 15.8123 36.0323 14.9251 35.4711C13.5775 34.6973 12.2275 33.9272 10.8797 33.1541C10.6042 32.9915 10.2938 32.862 10.0993 32.5975C10.2712 32.368 10.5786 32.3394 10.8284 32.2392C11.3909 32.062 11.9076 31.7776 12.4244 31.5016C12.5551 31.413 12.7146 31.4469 12.8399 31.5262C13.9923 32.1807 15.1346 32.8542 16.2909 33.5025C16.5375 33.6436 16.7873 33.4563 16.9981 33.3399C21.4094 30.8703 25.826 28.41 30.2365 25.9397C30.3999 25.8618 30.4903 25.69 30.477 25.5127C30.4801 20.5027 30.4778 15.4918 30.4785 10.4818C30.4972 10.2806 30.3797 10.0956 30.196 10.0133C25.7164 7.51433 21.239 5.01156 16.7601 2.51199C16.6825 2.45914 16.5906 2.43079 16.4964 2.43065C16.4022 2.43052 16.3102 2.4586 16.2325 2.51122C11.7536 5.01156 7.277 7.51663 2.79811 10.0154C2.6151 10.0979 2.49228 10.2798 2.51406 10.4818C2.51483 15.4918 2.51406 20.5027 2.51406 25.5134C2.50629 25.6 2.52548 25.6868 2.56903 25.7621C2.61258 25.8375 2.6784 25.8979 2.75764 25.9351C3.95285 26.6065 5.14961 27.2731 6.3456 27.9422C7.01938 28.3014 7.84664 28.5148 8.58898 28.2396C9.24407 28.0069 9.70326 27.3447 9.69076 26.6557C9.69695 21.675 9.68767 16.6934 9.6954 11.7134C9.67903 11.4923 9.89078 11.3096 10.1078 11.3305C10.6821 11.3266 11.2571 11.3228 11.8314 11.332C12.0711 11.3266 12.2361 11.5647 12.2065 11.7875C12.2041 16.7998 12.2126 21.8122 12.2026 26.8245C12.2041 28.1603 11.6501 29.6139 10.4027 30.2675C8.86594 31.056 6.96654 30.8888 5.44835 30.1327C4.13406 29.4829 2.87981 28.716 1.58884 28.0199C0.691723 27.5599 0.0714326 26.5988 0.0777476 25.5914V10.4039C0.0683395 9.41582 0.658215 8.46386 1.53278 7.99752C6.02727 5.48505 10.521 2.97067 15.0147 0.457051Z" fill="#708AF4"/>
<path d="M18.9358 10.9775C20.896 10.8525 22.9945 10.9034 24.7585 11.86C26.1242 12.593 26.8813 14.1314 26.9054 15.6344C26.8673 15.8371 26.6534 15.9489 26.458 15.935C25.8892 15.9342 25.3204 15.9427 24.7516 15.9312C24.5104 15.9404 24.3702 15.72 24.3399 15.5088C24.1765 14.7897 23.7805 14.0774 23.0972 13.7306C22.0483 13.2104 20.8321 13.2365 19.6883 13.2474C18.8533 13.2913 17.9554 13.3629 17.248 13.8493C16.7049 14.2177 16.5399 14.9615 16.7337 15.5605C16.9165 15.9905 17.4177 16.1293 17.8278 16.2572C20.1901 16.8692 22.6935 16.8083 25.0107 17.6137C25.9701 17.9421 26.9085 18.5804 27.2369 19.5754C27.6665 20.9089 27.4782 22.5028 26.5204 23.5734C25.7436 24.4544 24.6123 24.9339 23.484 25.1943C21.983 25.5258 20.4252 25.5342 18.9008 25.3871C17.4675 25.2252 15.9758 24.8522 14.8693 23.8848C13.923 23.0709 13.4609 21.8029 13.5068 20.579C13.5177 20.3723 13.7255 20.2282 13.9254 20.2452C14.4981 20.2406 15.0708 20.2391 15.6436 20.246C15.8723 20.2297 16.0419 20.4256 16.0537 20.6391C16.1593 21.3243 16.4193 22.0434 17.0224 22.4496C18.1865 23.1935 19.647 23.1425 20.9799 23.1634C22.0841 23.1148 23.3237 23.1002 24.2248 22.3772C24.7002 21.9649 24.8411 21.275 24.7126 20.6815C24.5734 20.1805 24.0442 19.947 23.5898 19.7943C21.2578 19.0636 18.7265 19.3287 16.417 18.5024C15.4794 18.1742 14.5727 17.5536 14.2125 16.5995C13.7099 15.2491 13.9402 13.5788 14.9984 12.5444C16.0302 11.5154 17.5196 11.1192 18.9358 10.9774V10.9775Z" fill="#708AF4"/>
</g>
<defs>
<clipPath id="clip0_98_122">
<rect width="33" height="36" fill="white"/>
</clipPath>
</defs>
</svg>

<svg xmlns="http://www.w3.org/2000/svg" width="33" height="36" fill="none"><g fill="#708AF4" clip-path="url(#a)"><path d="M15.015.457a3.06 3.06 0 0 1 2.962 0c4.51 2.524 9.022 5.045 13.531 7.57.848.474 1.415 1.409 1.407 2.377V25.59c.006 1.008-.617 1.966-1.512 2.428-4.495 2.51-8.988 5.024-13.483 7.535-.916.518-2.108.478-2.995-.083-1.348-.774-2.698-1.544-4.045-2.317-.276-.163-.586-.292-.78-.557.171-.229.479-.258.728-.358.563-.177 1.08-.461 1.596-.737.131-.089.29-.055.416.024 1.152.655 2.295 1.328 3.45 1.976.248.142.497-.046.708-.162 4.411-2.47 8.828-4.93 13.238-7.4a.433.433 0 0 0 .241-.427c.003-5.01 0-10.021.002-15.031a.469.469 0 0 0-.283-.469c-4.48-2.499-8.957-5.001-13.436-7.501a.47.47 0 0 0-.527 0c-4.48 2.5-8.956 5.005-13.435 7.503a.464.464 0 0 0-.284.467v15.031a.421.421 0 0 0 .244.422c1.195.672 2.392 1.338 3.588 2.007.673.36 1.5.573 2.243.298a1.686 1.686 0 0 0 1.102-1.584c.006-4.981-.003-9.963.004-14.943-.016-.22.196-.403.413-.382.574-.004 1.15-.008 1.723.001.24-.005.405.233.376.455-.003 5.013.006 10.025-.004 15.037.001 1.336-.553 2.79-1.8 3.443-1.537.789-3.436.622-4.955-.134-1.314-.65-2.568-1.417-3.86-2.113-.896-.46-1.517-1.421-1.51-2.429V10.404c-.01-.988.58-1.94 1.455-2.406L15.015.458Z"/><path d="M18.936 10.977c1.96-.125 4.058-.074 5.823.883 1.365.733 2.122 2.271 2.146 3.774-.038.203-.252.315-.447.301-.569 0-1.138.008-1.706-.004-.242.01-.382-.211-.412-.422-.163-.72-.56-1.432-1.243-1.778-1.049-.52-2.265-.495-3.409-.484-.835.044-1.733.116-2.44.602-.543.369-.708 1.112-.514 1.711.182.43.684.57 1.094.697 2.362.612 4.866.551 7.183 1.357.96.328 1.898.966 2.226 1.961.43 1.334.241 2.928-.717 3.998-.776.881-1.908 1.36-3.036 1.621-1.501.332-3.059.34-4.583.193-1.433-.162-2.925-.535-4.032-1.502-.946-.814-1.408-2.082-1.362-3.306.01-.207.219-.35.418-.334a85.574 85.574 0 0 1 1.719.001c.228-.016.398.18.41.393.105.685.365 1.404.968 1.81 1.165.744 2.625.693 3.958.714 1.104-.048 2.344-.063 3.245-.786.475-.412.616-1.102.488-1.695-.14-.502-.669-.735-1.123-.888-2.332-.73-4.863-.465-7.173-1.292-.938-.328-1.844-.948-2.205-1.902-.502-1.35-.272-3.021.786-4.056 1.032-1.029 2.522-1.425 3.938-1.567Z"/></g><defs><clipPath id="a"><path fill="#fff" d="M0 0h33v36H0z"/></clipPath></defs></svg>
